X:1
T:Title
%%score { ( 1 3 ) | 2 }
L:1/8
M:4/4
K:Db
V:1 treble nm="Grand Piano"
V:3 treble 
V:2 bass 
V:1
 z4 z2[Q:1/4=100] FE | DDDF [FA][FA][FA][FA] | [GB][Bd][Ac][GB] [FA]2 FA | d6 z2 | E6 z2 | %5
 DDDF [FA][FA][FA][FA] | [GB][Bd][Ac][GB] [FA]2 FA | d6 z2 |[M:3/4] D6 |[M:1/4] [FA][Fd] | %10
[M:4/4] cccc ccBc | [Fd][Fd][GB][GB] [FA]2 [FA][Fd] | cccc ccBc | [Fd][Fd][GB][GB] [FA]2 FE | %14
 DDDF [FA][FA][FA][FA] | [GB][Bd][Ac][GB] [FA]2 FA | d6 z2[K:bass] |[M:7/4] D6 z2 z2 z4 |] %18
V:2
 z4 z2 [D,A,D][D,G,D] | [D,F,][D,F,][D,F,][D,A,D] [D,D][D,D][D,D][D,D] | %2
 [G,D][G,D][G,D][G,D] [D,D]2 z2 | z2 [D,A,][D,A,] [D,A,]2 z2 | %4
 z2 [A,,A,][A,,A,] [A,,A,]2 [D,A,D][D,G,D] | [D,F,][D,F,][D,F,][D,A,D] [D,D][D,D][D,D][D,D] | %6
 [G,D][G,D][G,D][G,D] [D,D]2 z2 | z2 [D,A,][D,A,] [D,A,]2 z2 |[M:3/4] z2 [D,F,][D,G,] [D,F,]2 | %9
[M:1/4] [D,D][D,D] |[M:4/4][K:treble] [A,EG][A,EG][A,EG][A,EG] [A,EG][A,EG][A,EG][A,EG] | %11
 [D,D][D,D][D,D][D,D] [D,D]2 [D,D][D,D] | [A,EG][A,EG][A,EG][A,EG] [A,EG][A,EG][A,EG][A,EG] | %13
 [D,D][D,D][D,D][D,D] [D,D]2 [D,A,D][D,G,D] | [D,F,][D,F,][D,F,][D,A,D] [D,D][D,D][D,D][D,D] | %15
 [G,D][G,D][G,D][G,D] [D,D]2 z2 | z2 [D,A,][D,A,] [D,A,]2 z2 | %17
[M:7/4] z2 [D,F,][D,G,] [D,F,]2 z2 z2 z4 |] %18
V:3
 x8 | x8 | x8 | z2 FF F2 AF | z2 CC C2 FE | x8 | x8 | z2 FF F2 FE |[M:3/4] z2 A,B, A,2 | %9
[M:1/4] x2 |[M:4/4] x8 | x8 | x8 | x8 | x8 | x8 | z2 FF F2 F[K:bass]E | %17
[M:7/4] z2 A,B, A,2 z2 z2 z4 |] %18

